phone-solid.svg

<svg width="512" height="512" viewBox="0 0 512 512" fill="none" xmlns="http://www.w3.org/2000/svg">
<path d="M493.4 24.6L389.4 0.600011C378.1 -1.99999 366.5 3.90001 361.9 14.5L313.9 126.5C309.7 136.3 312.5 147.8 320.8 154.5L381.4 204.1C345.4 280.8 282.5 344.6 204.2 381.3L154.6 320.7C147.8 312.4 136.4 309.6 126.6 313.8L14.5999 361.8C3.89992 366.5 -2.00008 378.1 0.599918 389.4L24.5999 493.4C27.0999 504.2 36.6999 512 47.9999 512C304.1 512 512 304.5 512 48C512 36.8 504.3 27.1 493.4 24.6Z" fill="#FFBA0A"/>
</svg>

<svg aria-hidden="true" focusable="false" data-prefix="fas" data-icon="phone" class="svg-inline--fa fa-phone fa-w-16" role="img" xmlns="http://www.w3.org/2000/svg" viewBox="0 0 512 512"><path fill="currentColor" d="M493.4 24.6l-104-24c-11.3-2.6-22.9 3.3-27.5 13.9l-48 112c-4.2 9.8-1.4 21.3 6.9 28l60.6 49.6c-36 76.7-98.9 140.5-177.2 177.2l-49.6-60.6c-6.8-8.3-18.2-11.1-28-6.9l-112 48C3.9 366.5-2 378.1.6 389.4l24 104C27.1 504.2 36.7 512 48 512c256.1 0 464-207.5 464-464 0-11.2-7.7-20.9-18.6-23.4z"></path></svg>
